assets/icons/emote/laugh-filled.svg

<?xml version="1.0" encoding="UTF-8" standalone="no"?>
<svg
   viewBox="0 0 24 24"
   width="24"
   height="24"
   version="1.1"
   id="svg4"
   sodipodi:docname="laugh-filled.svg"
   inkscape:version="1.2 (1:1.2.1+202207142221+cd75a1ee6d)"
   xmlns:inkscape="http://www.inkscape.org/namespaces/inkscape"
   xmlns:sodipodi="http://sodipodi.sourceforge.net/DTD/sodipodi-0.dtd"
   xmlns="http://www.w3.org/2000/svg"
   xmlns:svg="http://www.w3.org/2000/svg"
   xmlns:rdf="http://www.w3.org/1999/02/22-rdf-syntax-ns#"
   xmlns:cc="http://creativecommons.org/ns#"
   xmlns:dc="http://purl.org/dc/elements/1.1/">
  <metadata
     id="metadata10">
    <rdf:RDF>
      <cc:Work
         rdf:about="">
        <dc:format>image/svg+xml</dc:format>
        <dc:type
           rdf:resource="http://purl.org/dc/dcmitype/StillImage" />
      </cc:Work>
    </rdf:RDF>
  </metadata>
  <defs
     id="defs8" />
  <sodipodi:namedview
     pagecolor="#ffffff"
     bordercolor="#666666"
     borderopacity="1"
     objecttolerance="10"
     gridtolerance="10"
     guidetolerance="10"
     inkscape:pageopacity="0"
     inkscape:pageshadow="2"
     inkscape:window-width="1920"
     inkscape:window-height="1016"
     id="namedview6"
     showgrid="true"
     inkscape:zoom="19.445436"
     inkscape:cx="7.8681702"
     inkscape:cy="5.2711598"
     inkscape:window-x="0"
     inkscape:window-y="0"
     inkscape:window-maximized="1"
     inkscape:current-layer="svg4"
     inkscape:pagecheckerboard="0"
     inkscape:showpageshadow="2"
     inkscape:deskcolor="#d1d1d1" />
  <path
     id="path993"
     style="fill:#808080;fill-opacity:1;fill-rule:evenodd;stroke:none;stroke-width:0.75;stroke-linecap:square;stroke-linejoin:round;stroke-opacity:1"
     d="M 11.953125 2.625 A 9.375 9.375 0 0 0 2.625 12 A 9.375 9.375 0 0 0 12 21.375 A 9.375 9.375 0 0 0 21.375 12 A 9.375 9.375 0 0 0 12 2.625 A 9.375 9.375 0 0 0 11.953125 2.625 z M 8.2890625 7.859375 L 8.2890625 7.8613281 C 9.2078107 7.8613281 10.125 8.4187522 10.125 9.5 C 8.2500037 9.0775008 6.2187504 11.666246 6.375 9.5 C 6.4537498 8.4175022 7.3715643 7.859375 8.2890625 7.859375 z M 15.710938 7.859375 C 16.628436 7.859375 17.5475 8.4175022 17.625 9.5 C 17.78125 11.666246 15.749996 9.0775008 13.875 9.5 C 13.875 8.4175022 14.792188 7.859375 15.710938 7.859375 z M 6.375 12.625 C 8.6179861 14.254309 15.332454 14.254309 17.625 12.625 L 17.589844 13.289062 C 17.549014 13.826199 16.468406 17.507813 11.982422 17.546875 C 7.4964598 17.585875 6.375 14.071873 6.375 13.40625 L 6.375 12.625 z " />
</svg>

<svg width="24" height="24" xmlns="http://www.w3.org/2000/svg"><path style="fill:gray;fill-opacity:1;stroke:none;stroke-width:.75;stroke-linecap:square;stroke-linejoin:round;stroke-opacity:1" d="M11.953 2.625A9.375 9.375 0 0 0 2.625 12 9.375 9.375 0 0 0 12 21.375 9.375 9.375 0 0 0 21.375 12 9.375 9.375 0 0 0 12 2.625a9.375 9.375 0 0 0-.047 0zM8.29 7.859v.002c.919 0 1.836.558 1.836 1.639-1.875-.422-3.906 2.166-3.75 0 .079-1.082.997-1.64 1.914-1.64zm7.422 0c.917 0 1.836.559 1.914 1.641.156 2.166-1.875-.422-3.75 0 0-1.082.917-1.64 1.836-1.64zm-9.336 4.766c2.243 1.63 8.957 1.63 11.25 0l-.035.664c-.041.537-1.122 4.219-5.608 4.258-4.486.039-5.607-3.475-5.607-4.14v-.782z"/></svg>
